src/lib/packages/icons/src/assets/filled/credit-card.svg

<svg width="24" height="24" viewBox="0 0 24 24" fill="none" xmlns="http://www.w3.org/2000/svg">
<path d="M21 8V9.25H3V8C3 6 4 5 6 5H18C20 5 21 6 21 8ZM21 10.75V16C21 18 20 19 18 19H6C4 19 3 18 3 16V10.75H21ZM10.75 15C10.75 14.586 10.414 14.25 10 14.25H7C6.586 14.25 6.25 14.586 6.25 15C6.25 15.414 6.586 15.75 7 15.75H10C10.414 15.75 10.75 15.414 10.75 15Z" fill="currentColor"/>
</svg>

<svg xmlns="http://www.w3.org/2000/svg" width="24" height="24" fill="none"><path fill="currentColor" d="M21 8v1.25H3V8c0-2 1-3 3-3h12c2 0 3 1 3 3Zm0 2.75V16c0 2-1 3-3 3H6c-2 0-3-1-3-3v-5.25h18ZM10.75 15a.75.75 0 0 0-.75-.75H7a.75.75 0 0 0 0 1.5h3a.75.75 0 0 0 .75-.75Z"/></svg>
